X:1
T:# / 2 bon voisin: encore un coup
%%score 1 2 3 4
L:1/8
Q:1/4=120
M:4/4
K:F
V:1 treble nm="Midi_70"
V:2 treble nm="Midi_75"
V:3 treble-8 nm="Midi_75"
V:4 bass nm="Midi_71"
V:1
 d4 c2"^Encore un coup" B2 | A3"^Bon Voisin" A A2 G2 | A2 d2 c2 B2 | A3 A B2 A2- | %4
w: En- core un|~coup, un pe- tit|coup, en- core un|coup me veulx tu|
[M:4/4] AG G4 F2 | G8 | z4 z2 d2 | d2 d2 c2 c2 | d3 c d2 f2 | e2 d4 c2 | d4 z4 | z2 d4 c2 | %12
w: * re- fu- *|ser,|De|ta mer- cy, sans|de * * pi-|tie u- *|ser|Vers mon|
 B2 A2 z2 G2 | A2 c2 B2 A2 | G2 FG AG B2- | BA A4 G2 | A4 z2 d2 | d2 c2 d4 | z4 d4 | f3 e d2 d2 | %20
w: las cueur, qui|tant tay- me *|sans fain * * * *||dre! Et|si ie mentz,|la|mort me vienge at-|
 c4 BABc | d2 cB AB c2- | cB B4 A2 | B2 d2 c2 B2 | A4 z4 | z2 d2 c2 B2 | A3 A B2 A2- | AG G4 F2 | %28
w: tain- * * * *|||dre Tout a pre-|sent,|tout a pre\-~sent|* sans me lays-|* * ser mu-|
 G2 d2 c2 B2 | A4 z4 | z2 d2 c2 B2 | A3 A B2 A2- | AG G4 F2 | !fermata!G8 |] %34
w: ser, tout a pre-|sent,|tout a pre-|sent sans me lays|* * ser mu-|ser!|
V:2
 D4 F2 G2 | D2 F2 FFDE | F2 F2 E2 D2 | F2 F2 F3 F |[M:4/4] E2 C2 D4- | D4 z2 G2 | G2 G2 F4- | %7
w: En- core un|coup, un pe- tit coup, en-|core un coup me|veulx tu re- fu|ser, * *|* De|ta mer. cy,|
 F2 F2 G2 A2 | F2 B4 A2 | B2 G2 A4 | z4 z2 G2- | G2 F2 E4 | D2 z D E2 G2 | F2 E2 DC C2- | %14
w: * sans de pi-|tie u- *|* * ser|Vers|* mon las|cueur, qui tant tay-|me sans fain * *|
 CB, B,2 C2 G2- | GF F2 D2 E2 | F2 z A A2 G2 | A4 z2 D2 | G4 z2 F2 | F2 F2 G2 B2 | A2 GF G2 F2- | %21
w: * * * dre, sans|* * * fain- *|dre Et si ie|mentz, la|mort, la|mort me vienge at-|tain * * * *|
 F2 E2 F2 G2- | G2 E2 F4 | z2 D2 F2 G2 | D4 z4 | F4 E2 D2 | F2 F2 F2 E2 | E2 C2 D4 | z2 D2 F2 G2 | %29
w: |* * dre|Tout a pre-|sent,|tout a pre-|sent sans me lays-|ser mu- ser,|tout a pre-|
 D4 z4 | F4 E2 D2 | F2 F2 F2 E2- | E2 C2 D4 | D8 |] %34
w: sent,|tout a pre-|sent sans me lays-|* ser mu-|ser!|
V:3
 z8 | z2 d2 cABB | A3 A A2 B2 | c2 c2 d3 c |[M:4/4][K:treble-8] B2 AG A4 | G2 d2 d2 d2 | %6
w: |En- core un coup, un|pe- tit coup, en-|core un coup me|veulx tu re- fu-|ser, De ta mer-|
 c2 c2 d3 c | d2 f2 e2 e2 | d2 g4 f2 | gfed e4 | d2 B2 c2 c2 | d4 z2 g2- | g2 f2 e2 d2 | %13
w: cy, sans de *|* pi- tie u-|ser * *||\_\_ Vers mon las|cueur, Vers|* mon las cueur|
 z2 c2 d2 f2 | e2 d2 c2 d2- | dc A2 B4 | A4 z2 d2 | f2 e3 d d2- | d2 c2 d4 | z4 z2 d2 | f4 z2 B2 | %21
w: qui tant tay-|me sans fain \-dre||\_\_ Et|si ie * *|* * mentz,|la|mort, la|
 B2 B2 c2 e2 | d2 cB c4 | B4 z4 | z2 d2 c2 B2 | A3 G A2 B2 | c2 d2 B2 c2- | cB G2 A4 | G4 z4 | %29
w: mort me vienge at-|tain * * *|dre|Tout a pre-|sent * * sans|me lays- ser mu-||ser,|
 z2 d2 c2 B2 | A3 G A2 B2 | c2 d2 B2 c2- | cB G2 A4 | G8 |] %34
w: tout a pre-|sent * * sans|me lays- ser mu-||ser!|
V:4
 z8 | D,4 F,F,G,G, | D,4 z2 G,2 | F,3 E, D,2 F,2- |[M:4/4] G,2 E,2 D,2 D,2 | G,4 G,4 | %6
w: |En- core un coup, un|coup, en-|core un coup me|veulx tu re- fu-|ser, De|
 C,2 E,2 D,4- | D,4 z2 A,2 | (B,3 A,) B,C D2 | (G,2 B,2) A,4 | z2 G,2 F,2 E,2 | D,4 z4 | %12
w: ta mer- cy,|* sans|de * pi- * tie|u- * ser|Vers mon las|cueur,|
 z2 D2 C2 B,2 | A,4 z2 F,2 | G,2 B,2 A,2 G,2 | B,2 F,2 G,4 | D,2 A,2 C2 B,2 | A,4 G,2 F,2 | %18
w: Vers mon las|cueur, qui|tant tay- me sans|fain- * *|dre, Et si ie|mentz, * *|
 E,4 D,4- | D,4 z4 | z2 F,2 B,3 A, | G,2 G,2 F,2 C,2 | G,4 F,4 | B,,4 z4 | D,4 F,2 G,2 | %25
w: ||la mort *|* me vienge at-|tain- *|dre|Tout a pre-|
 D,4 z2 G,2 | F,3 E, D,2 C,2 | E,4 D,4 | G,4 z4 | %29
w: sent sans|me * * lays-|ser mu-|ser,|
 D,4 F,2"^Encore un coup, un petit coup,""^Encore un petit coup  me veux-tu refuser""^De ta merci, sans de pitié user""^Vers mon las coeur, qui tant t'aime sans feindre!""^Et si je mens, la mortme vienne atteindre""^Tout a présent, sans me laisser muser (=réfléchir)!""^(Pierre Gringore, La Fleur et Triumphe de Cent et cinq""^Rondeaulx, contenant la constance et inconstance de""^deux Amans, 1550, Bl. D5a. Zuerst um 1515.)" G,2 | %30
w: tout a pre-|
 D,4 z2 G,2 | F,3 E, D,2 C,2 | E,4 D,4 | !fermata!G,8 |] %34
w: sent sans|me * * lays-|ser mu-|ser!|

